gama.ui.shared/icons_svg/light/prefs/prefs.theme2.svg

<svg height="25" viewBox="-674.774 -3072.633 25 25" width="25" xmlns="http://www.w3.org/2000/svg"><g fill="none"><path d="m-665.8741-3072.1325h7.2c2.4 0 3.6 0 5.04.48 1.2.48 2.4 1.68 2.88 2.88.48 1.44.48 2.64.48 5.04v7.2c0 2.4 0 3.6-.48 5.04-.48 1.2-1.68 2.4-2.88 2.88-1.44.48-2.64.48-5.04.48h-7.2c-2.4 0-3.6 0-5.04-.48-1.2-.48-2.4-1.68-2.88-2.88-.48-1.44-.48-2.64-.48-5.04v-7.2c0-2.4 0-3.6.48-5.04.48-1.2 1.68-2.4 2.88-2.88 1.44-.48 2.64-.48 5.04-.48m0 0" fill="#3d6c76"/><path d="m-665.8741-3072.1325h7.2c2.4 0 3.6 0 5.04.48 1.2.48 2.4 1.68 2.88 2.88.48 1.44.48 2.64.48 5.04v7.2c0 2.4 0 3.6-.48 5.04-.48 1.2-1.68 2.4-2.88 2.88-1.44.48-2.64.48-5.04.48h-7.2c-2.4 0-3.6 0-5.04-.48-1.2-.48-2.4-1.68-2.88-2.88-.48-1.44-.48-2.64-.48-5.04v-7.2c0-2.4 0-3.6.48-5.04.48-1.2 1.68-2.4 2.88-2.88 1.44-.48 2.64-.48 5.04-.48m0 0" stroke="#65727e" stroke-linecap="round" stroke-linejoin="round" stroke-width=".25"/><path d="m-668.5818-3062.43c-.6627 0-1.2.5373-1.2 1.2v7.2c0 .6628.5373 1.2 1.2 1.2h7.2077c.66274 0 1.2-.5372 1.2-1.2v-7.2c0-.6627-.53726-1.2-1.2-1.2zm3.6-.8h3.6077c1.1046 0 2 .8955 2 2v3.6h.3923c.2209 0 .4.179.4.4s-.1791.4-.4.4h-.3923v2.8c0 1.1046-.8954 2-2 2h-7.2077c-1.10456 0-2-.8954-2-2v-7.2c0-1.1045.89544-2 2-2h2.8v-.4c0-.221.1791-.4.4-.4s.4.179.4.4zm1.2-4.8c.2209 0 .4.179.4.4s-.1791.4-.4.4c-.6627 0-1.2.5373-1.2 1.2 0 .221-.1791.4-.4.4s-.4-.179-.4-.4c0-1.1045.89544-2 2-2zm7.2.8c-.2209 0-.4-.179-.4-.4s.1791-.4.4-.4c1.1046 0 2 .8955 2 2 0 .221-.1791.4-.4.4s-.4-.179-.4-.4c0-.6627-.53725-1.2-1.2-1.2zm1.2 3.6c0-.221.1791-.4.4-.4s.4.179.4.4v2.4c0 .221-.1791.4-.4.4s-.4-.179-.4-.4zm0 4.8c0-.221.1791-.4.4-.4s.4.179.4.4c0 1.1046-.8954 2-2 2-.2209 0-.4-.179-.4-.4s.1791-.4.4-.4c.66275 0 1.2-.5372 1.2-1.2zm-3.6-9.2c.2209 0 .4.179.4.4s-.1791.4-.4.4h-2.4c-.2209 0-.4-.179-.4-.4s.1791-.4.4-.4z" fill="#fff"/></g></svg>

<?xml version="1.0" encoding="UTF-8" standalone="no"?>
<!DOCTYPE svg PUBLIC "-//W3C//DTD SVG 1.1//EN" "http://www.w3.org/Graphics/SVG/1.1/DTD/svg11.dtd">
<svg xmlns="http://www.w3.org/2000/svg" xmlns:dc="http://purl.org/dc/elements/1.1/" version="1.1" xmlns:xl="http://www.w3.org/1999/xlink" viewBox="-674.7741 -3072.6325 25 25" width="25" height="25">
  <defs/>
  <g id="SOURCES" stroke-dasharray="none" stroke-opacity="1" stroke="none" fill="none" fill-opacity="1">
    <title>SOURCES</title>
    <g id="SOURCES_Light">
      <title>Light</title>
      <g id="Graphic_12509">
        <path d="M -665.8741 -3072.1325 L -658.6741 -3072.1325 C -656.2741 -3072.1325 -655.0741 -3072.1325 -653.6341 -3071.6525 C -652.4341 -3071.1725 -651.2341 -3069.9725 -650.7541 -3068.7725 C -650.2741 -3067.3325 -650.2741 -3066.1325 -650.2741 -3063.7325 L -650.2741 -3056.5325 C -650.2741 -3054.1325 -650.2741 -3052.9325 -650.7541 -3051.4925 C -651.2341 -3050.2925 -652.4341 -3049.0925 -653.6341 -3048.6125 C -655.0741 -3048.1325 -656.2741 -3048.1325 -658.6741 -3048.1325 L -665.8741 -3048.1325 C -668.2741 -3048.1325 -669.4741 -3048.1325 -670.9141 -3048.6125 C -672.1141 -3049.0925 -673.3141 -3050.2925 -673.7941 -3051.4925 C -674.2741 -3052.9325 -674.2741 -3054.1325 -674.2741 -3056.5325 L -674.2741 -3063.7325 C -674.2741 -3066.1325 -674.2741 -3067.3325 -673.7941 -3068.7725 C -673.3141 -3069.9725 -672.1141 -3071.1725 -670.9141 -3071.6525 C -669.4741 -3072.1325 -668.2741 -3072.1325 -665.8741 -3072.1325 M -665.8741 -3072.1325" fill="#3d6c76"/>
        <path d="M -665.8741 -3072.1325 L -658.6741 -3072.1325 C -656.2741 -3072.1325 -655.0741 -3072.1325 -653.6341 -3071.6525 C -652.4341 -3071.1725 -651.2341 -3069.9725 -650.7541 -3068.7725 C -650.2741 -3067.3325 -650.2741 -3066.1325 -650.2741 -3063.7325 L -650.2741 -3056.5325 C -650.2741 -3054.1325 -650.2741 -3052.9325 -650.7541 -3051.4925 C -651.2341 -3050.2925 -652.4341 -3049.0925 -653.6341 -3048.6125 C -655.0741 -3048.1325 -656.2741 -3048.1325 -658.6741 -3048.1325 L -665.8741 -3048.1325 C -668.2741 -3048.1325 -669.4741 -3048.1325 -670.9141 -3048.6125 C -672.1141 -3049.0925 -673.3141 -3050.2925 -673.7941 -3051.4925 C -674.2741 -3052.9325 -674.2741 -3054.1325 -674.2741 -3056.5325 L -674.2741 -3063.7325 C -674.2741 -3066.1325 -674.2741 -3067.3325 -673.7941 -3068.7725 C -673.3141 -3069.9725 -672.1141 -3071.1725 -670.9141 -3071.6525 C -669.4741 -3072.1325 -668.2741 -3072.1325 -665.8741 -3072.1325 M -665.8741 -3072.1325" stroke="#65727e" stroke-linecap="round" stroke-linejoin="round" stroke-width=".25"/>
      </g>
      <g id="Graphic_12506">
        <path d="M -668.5818 -3062.43 C -669.2445 -3062.43 -669.7818 -3061.8927 -669.7818 -3061.23 L -669.7818 -3054.03 C -669.7818 -3053.3672 -669.2445 -3052.83 -668.5818 -3052.83 L -661.3741 -3052.83 C -660.71136 -3052.83 -660.1741 -3053.3672 -660.1741 -3054.03 L -660.1741 -3061.23 C -660.1741 -3061.8927 -660.71136 -3062.43 -661.3741 -3062.43 Z M -664.9818 -3063.23 L -661.3741 -3063.23 C -660.2695 -3063.23 -659.3741 -3062.3345 -659.3741 -3061.23 L -659.3741 -3057.63 L -658.9818 -3057.63 C -658.7609 -3057.63 -658.5818 -3057.451 -658.5818 -3057.23 C -658.5818 -3057.009 -658.7609 -3056.83 -658.9818 -3056.83 L -659.3741 -3056.83 L -659.3741 -3054.03 C -659.3741 -3052.9254 -660.2695 -3052.03 -661.3741 -3052.03 L -668.5818 -3052.03 C -669.68636 -3052.03 -670.5818 -3052.9254 -670.5818 -3054.03 L -670.5818 -3061.23 C -670.5818 -3062.3345 -669.68636 -3063.23 -668.5818 -3063.23 L -665.7818 -3063.23 L -665.7818 -3063.63 C -665.7818 -3063.851 -665.6027 -3064.03 -665.3818 -3064.03 C -665.1609 -3064.03 -664.9818 -3063.851 -664.9818 -3063.63 Z M -663.7818 -3068.03 C -663.5609 -3068.03 -663.3818 -3067.851 -663.3818 -3067.63 C -663.3818 -3067.409 -663.5609 -3067.23 -663.7818 -3067.23 C -664.4445 -3067.23 -664.9818 -3066.6927 -664.9818 -3066.03 C -664.9818 -3065.809 -665.1609 -3065.63 -665.3818 -3065.63 C -665.6027 -3065.63 -665.7818 -3065.809 -665.7818 -3066.03 C -665.7818 -3067.1345 -664.88636 -3068.03 -663.7818 -3068.03 Z M -656.5818 -3067.23 C -656.8027 -3067.23 -656.9818 -3067.409 -656.9818 -3067.63 C -656.9818 -3067.851 -656.8027 -3068.03 -656.5818 -3068.03 C -655.4772 -3068.03 -654.5818 -3067.1345 -654.5818 -3066.03 C -654.5818 -3065.809 -654.7609 -3065.63 -654.9818 -3065.63 C -655.2027 -3065.63 -655.3818 -3065.809 -655.3818 -3066.03 C -655.3818 -3066.6927 -655.91905 -3067.23 -656.5818 -3067.23 Z M -655.3818 -3063.63 C -655.3818 -3063.851 -655.2027 -3064.03 -654.9818 -3064.03 C -654.7609 -3064.03 -654.5818 -3063.851 -654.5818 -3063.63 L -654.5818 -3061.23 C -654.5818 -3061.009 -654.7609 -3060.83 -654.9818 -3060.83 C -655.2027 -3060.83 -655.3818 -3061.009 -655.3818 -3061.23 Z M -655.3818 -3058.83 C -655.3818 -3059.051 -655.2027 -3059.23 -654.9818 -3059.23 C -654.7609 -3059.23 -654.5818 -3059.051 -654.5818 -3058.83 C -654.5818 -3057.7254 -655.4772 -3056.83 -656.5818 -3056.83 C -656.8027 -3056.83 -656.9818 -3057.009 -656.9818 -3057.23 C -656.9818 -3057.451 -656.8027 -3057.63 -656.5818 -3057.63 C -655.91905 -3057.63 -655.3818 -3058.1672 -655.3818 -3058.83 Z M -658.9818 -3068.03 C -658.7609 -3068.03 -658.5818 -3067.851 -658.5818 -3067.63 C -658.5818 -3067.409 -658.7609 -3067.23 -658.9818 -3067.23 L -661.3818 -3067.23 C -661.6027 -3067.23 -661.7818 -3067.409 -661.7818 -3067.63 C -661.7818 -3067.851 -661.6027 -3068.03 -661.3818 -3068.03 Z" fill="white"/>
      </g>
    </g>
  </g>
</svg>
